!!!OTL: Yaorang qiannian liushui wei renmin
!!!ARE: Asia, China, Shanxi Hequ
!! I, 288
!!!SCT: C2094
!!!YEM: Copyright 1995, estate of Helmut Schaffrath.
**kern
*ICvox
*Ivox
*M2/4
*k[f#]
*G:
{8.b
16ee
8dd
16dd
16a
=1
8.b
16ee
8dd
8a
=2
8b
16b
16a
8b
16b
16a
=3
8gg
16ff#
16ee
16dd
16ee
8b
=4
16a
16b
16a
16g
8e
8g
=5
2a}
=6
{16dd
8dd
16b
4dd
=7
8b
8dd
8b
8dd
=8
4a
4a
=9
4dd
8.b
16a
=10
8f#
16f#
16e
4d}
=11
{16a
16a
16a
16f#
16a
16a
16a
16dd
=12
16f#
16f#
16f#
16e
4d
=13
16dd
16dd
16dd
16b
16a
16a
16a
16f#
=14
16f#
16a
16f#
16e
4d}
=15
{8.a
16b
8dd
8ff#
=16
8ee
8dd
4a
=17
8.f#
16e
8f#
8a
=18
2d}
==
!!!AGN: Xiaodiao, Erentai, Niangaomian
!! Han
!!!ONB: ESAC (Essen Associative Code) Database: SENGANSU
!!!AMT: simple duple
!!!AIN: vox
!!!EED: Helmut Schaffrath
!!!EEV: 1.0
*-
